X:1
T: The Currant Bush
C:
R:Reel
Q: 232
K:Gm
M:4/4
L:1/8
|:GA Bc d2 g2|e2 ge d2 Bd|c2 Ac B2 GB|AB AG ^FD =EF|
GA Bc d2 g2|e2 ge d2 Bd|c2 Ac B2 GB|AG ^FA G2 d2|
g^f ga ba gb|ag ^fa g2 d2 g^f ga ba gb|ag ^fa g3d|
g^f ga ba gb|ag ^fa g2 d2|c2 Ac B2 GB|AG ^FA G2 G2:|
